public/email2.svg

<svg width="66" height="79" viewBox="0 0 66 79" fill="none" xmlns="http://www.w3.org/2000/svg">
<g clip-path="url(#clip0_9_79536)">
<path fill-rule="evenodd" clip-rule="evenodd" d="M56.5793 0.740106L64.302 5.17303C64.3447 5.19146 64.386 5.2128 64.4257 5.23697C64.7434 5.4542 65.0002 5.74845 65.1716 6.09178C65.343 6.43511 65.4235 6.81619 65.4054 7.19904V11.433V11.428V42.1013C65.3262 43.1924 64.9906 44.2499 64.4257 45.1888C63.8608 46.2072 63.0436 47.0651 62.0514 47.6815L11.6658 76.5946C11.3274 76.8393 10.9293 76.9899 10.5128 77.0307C10.0963 77.0714 9.67639 77.001 9.29642 76.8266C9.26223 76.8066 9.22291 76.7816 9.19576 76.7626L1.4669 72.3297C1.18295 72.1021 0.956215 71.8121 0.80421 71.4826C0.652204 71.153 0.579236 70.7929 0.591088 70.4306V35.5244C0.684133 34.4026 1.03422 33.3168 1.61471 32.3503C2.1952 31.3837 2.99077 30.562 3.94014 29.9481L54.3255 1.03098C54.6508 0.807707 55.0249 0.664902 55.4169 0.614312C55.8089 0.563722 56.2074 0.606794 56.5793 0.740106Z" fill="white"/>
<path fill-rule="evenodd" clip-rule="evenodd" d="M55.7981 1.15649C55.3746 1.18158 54.9647 1.31338 54.6066 1.53937L4.22094 30.4425C3.3537 31.0081 2.6274 31.7625 2.09684 32.6484C1.56629 33.5344 1.24546 34.5286 1.15867 35.556L1.16358 70.4282C1.14947 70.6999 1.19995 70.971 1.3109 71.2197C1.42184 71.4684 1.59015 71.6876 1.8022 71.8595L9.47066 76.2575C9.77146 76.4052 10.1075 76.4677 10.4417 76.4383C10.776 76.4088 11.0955 76.2886 11.3654 76.0905L61.751 47.1784C62.652 46.611 63.3953 45.8283 63.9132 44.9016C64.4326 44.0424 64.7425 43.0744 64.8182 42.0749V11.5105C64.8156 11.4843 64.8156 11.4578 64.8182 11.4316V7.19765C64.8345 6.9154 64.7796 6.6336 64.6586 6.37774C64.5376 6.12187 64.3544 5.89996 64.1253 5.7323L56.3182 1.25947C56.1517 1.19257 55.9737 1.15864 55.7942 1.15954L55.7981 1.15649ZM10.1677 77.6308C9.75814 77.6334 9.35507 77.5278 8.99997 77.3249C8.98489 77.3159 8.86615 77.242 8.85609 77.237L1.16775 72.8231C0.802772 72.5466 0.507496 72.1894 0.305687 71.7797C0.103879 71.3701 0.00108817 70.9193 0.00515617 70.4632L0 35.522C0.0915811 34.2997 0.467138 33.1152 1.09728 32.0616C1.72743 31.0079 2.59506 30.1139 3.63166 29.4499L54.0372 0.527889C54.4405 0.260206 54.9019 0.0915483 55.3837 0.0359384C55.8654 -0.0196714 56.3537 0.0392904 56.808 0.207975C56.8293 0.214742 56.8491 0.224896 56.8672 0.23799L64.596 4.67092C65.03 4.92733 65.3874 5.29388 65.6317 5.73303C65.8759 6.17217 65.9983 6.66809 65.986 7.16971V11.3536C65.9902 11.378 65.9917 11.4028 65.9909 11.4276L65.986 42.0998C65.9086 43.2935 65.5459 44.4517 64.928 45.4782C64.3144 46.5847 63.425 47.5161 62.3452 48.1829L11.9498 77.0951C11.4132 77.4253 10.7986 77.6093 10.1677 77.6287V77.6308Z" fill="#1B69FF"/>
<path fill-rule="evenodd" clip-rule="evenodd" d="M64.4263 45.1851C64.9912 44.2462 65.3268 43.1887 65.406 42.0976L47.7289 36.9102L39.4368 48.8644C38.7675 49.8685 37.8861 50.7157 36.854 51.3472C36.4795 51.5965 36.058 51.7673 35.6148 51.8493C35.1717 51.9312 34.7161 51.9226 34.2764 51.8239L25.9846 49.3851L8.31144 74.8609C8.29205 75.2439 8.37195 75.6255 8.54347 75.969C8.71498 76.3126 8.97224 76.6066 9.29087 76.823C9.67081 76.9975 10.0909 77.068 10.5075 77.0272C10.924 76.9864 11.3221 76.8359 11.6605 76.591L62.0459 47.6779C63.0403 47.0624 63.8598 46.2043 64.4263 45.1851Z" fill="url(#paint0_linear_9_79536)"/>
<path fill-rule="evenodd" clip-rule="evenodd" d="M8.90983 75.0251C8.91146 75.2794 8.97364 75.5298 9.09128 75.7556C9.20891 75.9814 9.37877 76.1764 9.58676 76.3245C9.87914 76.4432 10.1975 76.4842 10.5107 76.4435C10.8239 76.4029 11.1209 76.2819 11.3728 76.0926L61.7584 47.1805C62.6593 46.613 63.4026 45.8303 63.9205 44.9036C64.3558 44.1696 64.6475 43.3605 64.7804 42.5188L47.9691 37.5861L39.9146 49.1906C39.1963 50.2669 38.2508 51.1748 37.1438 51.8513C36.7019 52.1414 36.2046 52.3377 35.6829 52.4282C35.1612 52.5187 34.6264 52.5013 34.1117 52.3771L26.225 50.0612L8.90369 75.0251H8.90983ZM10.1709 77.6309C9.76129 77.6335 9.35847 77.5279 9.00338 77.325C8.59917 77.0609 8.27021 76.6978 8.04826 76.2706C7.82631 75.8434 7.71885 75.3667 7.73618 74.8863C7.72898 74.7605 7.76448 74.6359 7.83685 74.5324L25.509 49.0576C25.5804 48.958 25.6809 48.8828 25.797 48.8422C25.9131 48.8015 26.039 48.7975 26.1575 48.8307L34.4496 51.2696C34.813 51.3455 35.1882 51.3471 35.5523 51.2745C35.9164 51.2018 36.2618 51.0563 36.5675 50.8468C37.5262 50.2594 38.3437 49.4703 38.9622 48.5349L47.2541 36.5817C47.3239 36.4819 47.4234 36.4063 47.5386 36.3656C47.6539 36.3249 47.7793 36.3211 47.8969 36.3548L65.5749 41.5422C65.6991 41.5795 65.8074 41.6569 65.8826 41.7621C65.9578 41.8672 65.9957 41.9941 65.9904 42.123C65.909 43.3082 65.5461 44.4574 64.9314 45.4763C64.3178 46.5829 63.4284 47.5143 62.3486 48.1811L11.9532 77.0931C11.4158 77.4255 10.7996 77.611 10.167 77.6309H10.1709Z" fill="#1B69FF"/>
<path fill-rule="evenodd" clip-rule="evenodd" d="M8.30859 44.1953V70.6346V70.6246V74.8635L25.9817 49.3878L23.5419 48.6691L8.30859 44.1953Z" fill="#FBFBFC"/>
<path fill-rule="evenodd" clip-rule="evenodd" d="M8.88523 70.5496C8.88756 70.5742 8.88756 70.599 8.88523 70.6236V73.0034L25.0437 49.7146L8.88007 44.9649V70.5526L8.88523 70.5496ZM8.31093 75.4422C8.25163 75.4422 8.19268 75.4321 8.13685 75.4123C8.01844 75.3758 7.91476 75.3027 7.84098 75.2037C7.7672 75.1046 7.72719 74.9848 7.72656 74.8615V70.6995C7.72656 70.6795 7.72656 70.6555 7.72656 70.6305V44.1912C7.72699 44.1002 7.74878 44.0106 7.79016 43.9294C7.83153 43.8482 7.89141 43.7778 7.96497 43.7236C8.03676 43.6696 8.12037 43.6334 8.20903 43.6179C8.2977 43.6024 8.3887 43.608 8.4747 43.6345L26.1569 48.8271C26.2447 48.8538 26.325 48.9006 26.3912 48.9638C26.4574 49.0271 26.5076 49.1048 26.538 49.1909C26.5683 49.277 26.578 49.369 26.566 49.4594C26.554 49.5499 26.5206 49.6363 26.4688 49.7116L8.79561 75.1824C8.74256 75.2618 8.67076 75.327 8.58642 75.3723C8.50207 75.4176 8.40681 75.4416 8.31093 75.4422Z" fill="#1B69FF"/>
<path fill-rule="evenodd" clip-rule="evenodd" d="M65.4068 42.099V11.4258L50.1686 33.3902L47.7246 36.9105L65.4068 42.099Z" fill="#FBFBFC"/>
<path fill-rule="evenodd" clip-rule="evenodd" d="M48.6629 36.5851L64.8213 41.3298L64.8265 13.2884L48.6629 36.5851ZM65.4057 42.6822C65.3485 42.6812 65.2918 42.6728 65.2368 42.6572L47.5646 37.4707C47.4767 37.4433 47.3964 37.3963 47.3296 37.3332C47.2629 37.2701 47.2114 37.1927 47.1794 37.1069C47.1497 37.0206 47.1406 36.9288 47.1526 36.8384C47.1647 36.7481 47.1976 36.6617 47.2489 36.5861L64.9311 11.1053C64.9994 11.0025 65.0995 10.9246 65.2164 10.8836C65.3333 10.8427 65.4607 10.8409 65.5788 10.8785C65.6977 10.9142 65.8017 10.9871 65.8757 11.0863C65.9496 11.1855 65.9894 11.3058 65.9891 11.4293L65.9839 42.1025C65.9834 42.2552 65.9225 42.4016 65.8143 42.51C65.7061 42.6185 65.5594 42.6803 65.4057 42.6822Z" fill="#1B69FF"/>
<path fill-rule="evenodd" clip-rule="evenodd" d="M62.0521 5.46322L11.6664 34.3813C10.6758 34.998 9.86023 35.8561 9.29706 36.8741C8.72979 37.8102 8.39395 38.8666 8.31738 39.9566V44.1957C34.1035 51.772 9.02956 44.4075 34.2817 51.8269C34.7214 51.9256 35.1766 51.9342 35.6198 51.8523C36.063 51.7703 36.4847 51.5995 36.8592 51.3502C37.8913 50.7187 38.7724 49.8715 39.4418 48.8674C66.0194 10.5578 39.9446 48.1337 65.4109 11.4334V7.19944C65.4292 6.81658 65.3488 6.43541 65.1774 6.09206C65.006 5.74872 64.7493 5.45453 64.4315 5.23737C64.0503 5.06204 63.6291 4.9905 63.211 5.0302C62.7929 5.06989 62.3929 5.21934 62.0521 5.46322Z" fill="white"/>
<path fill-rule="evenodd" clip-rule="evenodd" d="M8.89111 43.7608L34.4449 51.2692C34.8083 51.3451 35.1834 51.3467 35.5475 51.274C35.9116 51.2013 36.257 51.0558 36.5628 50.8463C37.5214 50.2593 38.3389 49.4705 38.9575 48.5354C51.6484 30.2442 52.3332 29.2557 52.3603 29.2208L52.4058 29.2508C52.633 28.823 53.1428 28.0903 54.0771 26.7379L64.8231 11.2544V7.19741C64.8393 6.91516 64.7845 6.63336 64.6635 6.37749C64.5425 6.12163 64.3592 5.89972 64.1302 5.73205C63.8374 5.61568 63.5194 5.57584 63.2067 5.61626C62.894 5.65668 62.597 5.77609 62.3439 5.96302L11.9495 34.8761C11.0505 35.4445 10.3101 36.2289 9.79712 37.157C9.27612 38.014 8.96611 38.9811 8.89209 39.9796L8.89111 43.7608ZM34.974 52.4986C34.6826 52.4981 34.3926 52.4566 34.1129 52.3756L8.14371 44.7493C8.02412 44.7127 7.91959 44.6393 7.8449 44.5396C7.77021 44.4398 7.7294 44.319 7.72852 44.1946V39.9556C7.80676 38.7635 8.16977 37.607 8.7875 36.5822C9.40242 35.4766 10.2913 34.5457 11.37 33.8776L61.7556 4.96448V4.95947C62.1828 4.66306 62.6821 4.48577 63.2016 4.44605C63.721 4.40632 64.2416 4.50554 64.7094 4.73351C65.1136 4.9967 65.4428 5.35888 65.6655 5.78513C65.8881 6.21137 65.9965 6.68741 65.9805 7.1674V11.4313C65.98 11.5484 65.9452 11.6626 65.8801 11.7602C54.0008 28.8819 53.338 29.8355 53.3088 29.8705L53.2595 29.8414C53.0221 30.2842 52.4831 31.0609 51.4784 32.5112L39.9057 49.1901C39.1872 50.2662 38.2419 51.1741 37.1351 51.8509C36.4846 52.252 35.7392 52.4755 34.974 52.4986Z" fill="#1B69FF"/>
<path fill-rule="evenodd" clip-rule="evenodd" d="M6.41483 74.817L17.1004 52.8176C17.3754 52.2552 17.7221 51.7305 18.1321 51.2563C18.5014 50.8276 18.9406 50.4636 19.4315 50.1798L30.7566 43.636L35.7851 30.5483L32.5669 34.2115C31.5803 35.333 30.3836 35.5469 29.8958 34.6963L29.0733 33.2419C28.5966 32.3913 29.0047 30.7792 29.9923 29.6567C35.3627 23.559 40.7316 17.4585 46.0987 11.3555C46.3146 18.0916 46.5265 24.8254 46.7344 31.5568C46.7112 32.2458 46.5248 32.9196 46.1908 33.5238C45.8567 34.1279 45.3841 34.6453 44.8114 35.0341L42.9507 36.1786C41.8505 36.8553 40.9202 36.3935 40.886 35.1581L40.7613 31.2459L34.8801 46.4696C34.6212 47.0658 34.2829 47.625 33.8744 48.1318C33.4736 48.6326 32.9859 49.0581 32.4343 49.3882L20.8587 56.068L11.0532 76.2683C10.3834 77.6487 9.12512 78.5562 8.25117 78.2863L6.77577 77.8235C5.90483 77.5556 5.74705 76.2033 6.41483 74.817Z" fill="#1B69FF"/>
<path fill-rule="evenodd" clip-rule="evenodd" d="M7.0156 75.1105C6.84918 75.3864 6.7401 75.6927 6.69518 76.0112C6.65026 76.3298 6.6704 76.6541 6.75411 76.9647C6.83356 77.1507 6.93598 77.1846 6.97018 77.1956L8.44951 77.6574C8.89201 77.7923 9.85759 77.1956 10.4459 75.9832L20.2515 55.7879C20.3087 55.6675 20.4016 55.5674 20.5179 55.5011L32.0925 48.8163C32.5763 48.5273 33.0032 48.1529 33.3518 47.7117C33.7214 47.2535 34.0259 46.747 34.2569 46.2065L40.1261 31.0138C40.1819 30.8714 40.2853 30.7524 40.419 30.6768C40.5527 30.6013 40.7085 30.5737 40.8602 30.5987C41.0119 30.6238 41.1502 30.7001 41.2521 30.8146C41.3539 30.9291 41.4131 31.075 41.4195 31.2277L41.5381 35.1398C41.5267 35.261 41.5439 35.3832 41.5882 35.4967C41.6326 35.6101 41.7027 35.7118 41.7935 35.7935C41.9304 35.8287 42.0738 35.8311 42.2119 35.8007C42.3499 35.7703 42.4788 35.7079 42.588 35.6185L44.4477 34.4752C44.9193 34.1464 45.3094 33.715 45.5882 33.2139C45.867 32.7129 46.0271 32.1553 46.0567 31.5835L45.4725 13.0614L30.4774 30.0942C30.1095 30.4577 29.8402 30.9078 29.6944 31.4026C29.5486 31.8973 29.5313 32.4207 29.6438 32.9239L30.4664 34.3722C30.4891 34.4231 30.5253 34.4667 30.5712 34.4986C30.6171 34.5305 30.671 34.5494 30.7269 34.5531C30.9909 34.5241 31.2457 34.4397 31.4745 34.3057C31.7033 34.1717 31.901 33.9909 32.0545 33.7754L35.2726 30.1173C35.3752 29.9999 35.5159 29.922 35.6704 29.8977C35.8249 29.8733 35.9832 29.9039 36.1173 29.984C36.2513 30.0642 36.3528 30.1886 36.4036 30.3357C36.4544 30.4827 36.4512 30.6428 36.395 30.7879L31.3665 43.8756C31.3128 44.0187 31.2102 44.1387 31.0767 44.2145L19.7516 50.7523C19.3275 51.0046 18.9468 51.3224 18.6234 51.6938C18.2507 52.1238 17.9343 52.5991 17.682 53.1082L7.00332 75.1136L7.0156 75.1105ZM8.58038 78.9998C8.39959 79.0021 8.21958 78.9753 8.04733 78.9207L6.57291 78.459C6.33961 78.3823 6.12579 78.2566 5.94582 78.0903C5.76585 77.924 5.62409 77.7212 5.53013 77.4955C5.36956 77.0094 5.31184 76.4956 5.36047 75.9863C5.4091 75.4771 5.56304 74.9832 5.81274 74.5359L16.4973 52.5314C16.7972 51.9144 17.1787 51.3399 17.6317 50.8233C18.0503 50.3385 18.5463 49.9255 19.0999 49.6008L30.2159 43.1869L33.8365 33.7745L33.0651 34.6481C32.7794 35.0302 32.4072 35.3401 31.9786 35.5527C31.55 35.7652 31.0772 35.8745 30.5982 35.8715C30.3299 35.8452 30.0721 35.7539 29.8476 35.6054C29.6231 35.4569 29.4388 35.2558 29.3109 35.0198L28.4942 33.5716C27.8647 32.4721 28.3012 30.562 29.4869 29.2206L45.5931 10.9195C45.6805 10.8203 45.7959 10.7496 45.9243 10.7165C46.0527 10.6833 46.1883 10.6892 46.3132 10.7335C46.4389 10.7786 46.5484 10.8595 46.628 10.9662C46.7076 11.0729 46.7537 11.2006 46.7606 11.3332L47.3963 31.5396C47.3751 32.3444 47.161 33.1324 46.7714 33.8383C46.3818 34.5441 45.828 35.1473 45.1565 35.5976L43.2961 36.7411C42.9922 36.9603 42.6351 37.0956 42.2615 37.1332C41.8878 37.1708 41.511 37.1093 41.1691 36.9549C40.8655 36.7699 40.6169 36.508 40.4485 36.1961C40.2801 35.8843 40.1979 35.5335 40.2105 35.1798L40.1936 34.5481L35.4978 46.7062C35.2142 47.3665 34.8403 47.9848 34.3865 48.5434C33.9351 49.1089 33.3857 49.5899 32.7643 49.9637L21.3647 56.5415L11.6498 76.5509C11.4047 77.1942 10.9908 77.7606 10.4511 78.1912C9.91133 78.6218 9.26536 78.9011 8.58038 78.9998Z" fill="#1B69FF"/>
</g>
<defs>
<linearGradient id="paint0_linear_9_79536" x1="36.8573" y1="36.9102" x2="36.8573" y2="77.0385" gradientUnits="userSpaceOnUse">
<stop stop-color="white"/>
<stop offset="1" stop-color="#DBE7FF"/>
</linearGradient>
<clipPath id="clip0_9_79536">
<rect width="66" height="79" fill="white"/>
</clipPath>
</defs>
</svg>

<svg xmlns="http://www.w3.org/2000/svg" width="66" height="79" fill="none" viewBox="0 0 66 79"><g fill-rule="evenodd" clip-path="url(#a)" clip-rule="evenodd"><path fill="#fff" d="m56.58.74 7.722 4.433a1 1 0 0 1 .124.064 2.26 2.26 0 0 1 .98 1.962v4.234-.005 30.673a7 7 0 0 1-.98 3.088 6.84 6.84 0 0 1-2.375 2.492L11.666 76.596a2.36 2.36 0 0 1-2.37.232 2 2 0 0 1-.1-.064l-7.73-4.433a2.34 2.34 0 0 1-.875-1.9V35.525a7.34 7.34 0 0 1 1.024-3.174 7.4 7.4 0 0 1 2.325-2.402L54.326 1.031a2.5 2.5 0 0 1 2.253-.29"/><path fill="#1b69ff" d="M55.798 1.156a2.5 2.5 0 0 0-1.191.383L4.22 30.442a6.8 6.8 0 0 0-2.124 2.206 6.8 6.8 0 0 0-.938 2.908l.005 34.872a1.72 1.72 0 0 0 .638 1.431l7.669 4.398a1.84 1.84 0 0 0 1.894-.166l50.386-28.913a6.36 6.36 0 0 0 2.162-2.276c.52-.86.83-1.828.905-2.827V11.51a.4.4 0 0 1 0-.078V7.198a1.69 1.69 0 0 0-.693-1.466L56.318 1.26a1.4 1.4 0 0 0-.524-.1zm-45.63 76.475A2.3 2.3 0 0 1 9 77.325l-.144-.088-7.688-4.414a2.94 2.94 0 0 1-1.163-2.36L0 35.522a7.9 7.9 0 0 1 1.097-3.46 7.95 7.95 0 0 1 2.535-2.612L54.037.528a3.07 3.07 0 0 1 2.771-.32.2.2 0 0 1 .06.03l7.728 4.433a2.814 2.814 0 0 1 1.39 2.499v4.184q.006.036.005.074L65.986 42.1a7.5 7.5 0 0 1-1.058 3.378 7.4 7.4 0 0 1-2.583 2.705L11.95 77.095a3.6 3.6 0 0 1-1.782.534z"/><path fill="url(#b)" d="M64.426 45.185c.565-.939.9-1.996.98-3.087L47.729 36.91l-8.292 11.954a8.3 8.3 0 0 1-2.583 2.483 3.33 3.33 0 0 1-2.578.477l-8.291-2.439L8.31 74.861a2.23 2.23 0 0 0 .98 1.962 2.36 2.36 0 0 0 2.37-.232l50.385-28.913a6.84 6.84 0 0 0 2.38-2.493"/><path fill="#1b69ff" d="M8.91 75.025a1.6 1.6 0 0 0 .677 1.3 1.83 1.83 0 0 0 1.786-.232L61.758 47.18a6.36 6.36 0 0 0 2.162-2.277 6.7 6.7 0 0 0 .86-2.385l-16.81-4.933-8.055 11.605a8.9 8.9 0 0 1-2.771 2.66 3.87 3.87 0 0 1-3.032.526l-7.887-2.316L8.904 75.025zm1.26 2.606a2.3 2.3 0 0 1-1.167-.306 2.784 2.784 0 0 1-1.267-2.439.56.56 0 0 1 .1-.354L25.51 49.058a.6.6 0 0 1 .648-.227l8.293 2.439a2.76 2.76 0 0 0 2.117-.423 7.7 7.7 0 0 0 2.395-2.312l8.292-11.953a.585.585 0 0 1 .643-.227l17.678 5.187a.585.585 0 0 1 .415.581 7.5 7.5 0 0 1-1.059 3.353 7.4 7.4 0 0 1-2.582 2.705L11.953 77.093a3.6 3.6 0 0 1-1.786.538z"/><path fill="#fbfbfc" d="M8.309 44.195v26.44-.01 4.239l17.673-25.476-2.44-.719z"/><path fill="#1b69ff" d="M8.885 70.55a.4.4 0 0 1 0 .074v2.38l16.159-23.29-16.164-4.75v25.589zm-.574 4.892a.5.5 0 0 1-.174-.03.58.58 0 0 1-.41-.55V44.19a.583.583 0 0 1 .748-.556l17.682 5.192a.59.59 0 0 1 .381.364.58.58 0 0 1-.07.52L8.797 75.183a.58.58 0 0 1-.485.26"/><path fill="#fbfbfc" d="M65.407 42.099V11.426L50.169 33.39l-2.444 3.52z"/><path fill="#1b69ff" d="M48.663 36.585 64.82 41.33l.005-28.042zm16.743 6.097a.7.7 0 0 1-.17-.025l-17.671-5.186a.6.6 0 0 1-.386-.364.59.59 0 0 1 .07-.52L64.93 11.104a.57.57 0 0 1 .648-.226.58.58 0 0 1 .41.55l-.005 30.674a.58.58 0 0 1-.578.58"/><path fill="#fff" d="M62.052 5.463 11.666 34.381a6.84 6.84 0 0 0-2.369 2.493 6.9 6.9 0 0 0-.98 3.083v4.239c25.786 7.576.713.212 25.965 7.63a3.34 3.34 0 0 0 2.577-.476 8.3 8.3 0 0 0 2.583-2.483c26.577-38.31.503-.733 25.969-37.434V7.2a2.24 2.24 0 0 0-.98-1.962 2.38 2.38 0 0 0-2.379.226"/><path fill="#1b69ff" d="m8.891 43.76 25.554 7.51a2.76 2.76 0 0 0 2.118-.424 7.7 7.7 0 0 0 2.395-2.31c12.69-18.292 13.375-19.28 13.402-19.315l.046.03c.227-.428.737-1.16 1.671-2.513l10.746-15.484V7.197a1.69 1.69 0 0 0-.693-1.465 1.86 1.86 0 0 0-1.786.231L11.95 34.876a6.3 6.3 0 0 0-2.153 2.281 6.34 6.34 0 0 0-.905 2.823zM34.974 52.5c-.291 0-.581-.042-.861-.123l-25.97-7.627a.59.59 0 0 1-.414-.554v-4.24a7.5 7.5 0 0 1 1.058-3.373 7.43 7.43 0 0 1 2.583-2.704L61.756 4.964V4.96a2.93 2.93 0 0 1 2.953-.225 2.785 2.785 0 0 1 1.271 2.434v4.263a.6.6 0 0 1-.1.33C54 28.88 53.338 29.835 53.31 29.87l-.05-.03c-.237.443-.776 1.22-1.78 2.67l-11.573 16.68a8.9 8.9 0 0 1-2.77 2.66 4.37 4.37 0 0 1-2.162.648"/><path fill="#1b69ff" d="m6.415 74.817 10.685-22a7.3 7.3 0 0 1 1.032-1.56c.37-.43.809-.793 1.3-1.077l11.325-6.544 5.028-13.088-3.218 3.664c-.987 1.121-2.183 1.335-2.671.484l-.823-1.454c-.476-.85-.068-2.463.92-3.585q8.055-9.147 16.106-18.301.324 10.105.635 20.2a4.4 4.4 0 0 1-.543 1.968 4.4 4.4 0 0 1-1.38 1.51l-1.86 1.145c-1.1.676-2.03.215-2.065-1.02l-.125-3.913-5.88 15.224a7.3 7.3 0 0 1-1.007 1.662c-.4.5-.888.926-1.44 1.256l-11.575 6.68-9.806 20.2c-.67 1.38-1.928 2.288-2.802 2.018l-1.475-.463c-.871-.267-1.029-1.62-.361-3.006"/><path fill="#1b69ff" d="M7.016 75.11a2.4 2.4 0 0 0-.262 1.855c.08.186.182.22.216.23l1.48.462c.442.135 1.408-.461 1.996-1.674l9.806-20.195c.057-.12.15-.22.266-.287l11.575-6.685c.483-.289.91-.663 1.259-1.104a6.4 6.4 0 0 0 .905-1.506l5.87-15.192a.67.67 0 0 1 .733-.415.67.67 0 0 1 .56.629l.118 3.912a.78.78 0 0 0 .256.654.9.9 0 0 0 .794-.175l1.86-1.144a3.751 3.751 0 0 0 1.609-2.892l-.585-18.522-14.995 17.033a3.05 3.05 0 0 0-.833 2.83l.822 1.448a.3.3 0 0 0 .26.181 1.89 1.89 0 0 0 1.328-.778l3.219-3.658a.666.666 0 0 1 1.122.67l-5.029 13.089a.66.66 0 0 1-.29.339l-11.324 6.537c-.424.253-.805.57-1.129.942-.372.43-.689.905-.941 1.414L7.003 75.114zM8.58 79q-.272.003-.533-.08l-1.474-.461a1.71 1.71 0 0 1-1.043-.963 3.7 3.7 0 0 1 .283-2.96L16.497 52.53a7.7 7.7 0 0 1 1.135-1.708 5.9 5.9 0 0 1 1.468-1.222l11.116-6.414 3.62-9.412-.77.873a3.05 3.05 0 0 1-2.468 1.223 1.65 1.65 0 0 1-1.287-.851l-.817-1.448c-.63-1.1-.193-3.01.993-4.351L45.593 10.92a.66.66 0 0 1 .72-.187.68.68 0 0 1 .448.6l.635 20.207a5 5 0 0 1-.625 2.298 5.1 5.1 0 0 1-1.614 1.76l-1.86 1.143a2.13 2.13 0 0 1-2.128.214 2 2 0 0 1-.958-1.775l-.017-.632-4.696 12.158a7.8 7.8 0 0 1-1.111 1.837c-.452.566-1.001 1.047-1.623 1.42l-11.4 6.578-9.714 20.01a3.86 3.86 0 0 1-1.199 1.64 3.9 3.9 0 0 1-1.87.809"/></g><defs><linearGradient id="b" x1="36.857" x2="36.857" y1="36.91" y2="77.038" gradientUnits="userSpaceOnUse"><stop stop-color="#fff"/><stop offset="1" stop-color="#dbe7ff"/></linearGradient><clipPath id="a"><path fill="#fff" d="M0 0h66v79H0z"/></clipPath></defs></svg>
